X:155
%%etbk:tnset id:53,pos:3,rep:3x,ant:
%%etbk:tnset id:183,pos:8,rep:3x+A-STOP,ant:
%%etbk:wsite http://www.thesession.org/tunes/display/415
%%etbk:pldat 2016-06-23T18:53,2016-06-22T15:48,2016-06-21T15:26,2016-05-05T15:26,2016-05-03T17:24,2016-03-11T16:36,2016-03-09T16:37,2016-03-08T17:13,2016-03-05T15:50,2016-02-27T14:53,2016-02-16T17:08,2016-02-07T14:56,2015-11-03T15:19,2015-10-28T15:47,2015-10-25T13:52,2015-10-22T18:21,2015-10-06T16:59,2015-09-29T16:15,2015-06-23T18:07,2015-06-18T18:48,2015-06-10T16:30,2015-05-27T18:17,2015-03-13T19:03,2015-03-11T16:34,2015-03-05T18:49,2015-02-22T16:28,2015-02-17T17:21,2015-02-04T16:43,2015-01-27T15:50,2014-11-06T18:20,2014-11-04T16:09,2014-11-02T15:33,2014-10-29T15:49,2014-10-27T19:10,2014-10-20T18:09,2014-10-11T15:15,2014-08-21T18:06,2014-08-18T18:29,2014-06-23T18:31,2014-06-07T15:14,2014-06-03T15:40,2014-03-06T18:21,2014-03-03T18:26,2014-02-27T18:13,2014-02-18T16:23,2013-10-30T17:18,2013-10-29T16:04,2013-10-27T14:50,2013-10-24T18:36,2013-10-18T15:42,2013-10-16T16:06,2013-10-13T15:10,2013-10-08T15:36
T: Humours Of Tulla, The
Z: Piano Box Version by Martin Fleischmann
H: Created 2013-02-19 /  Last Modified 2013-02-19
M: 4/4
L: 1/8
R: reel
K: Dmaj
|: "D"!3!d{e}d!1!A!3!d !2!B!3!dAB | !3!dd!5!f!3!d "A"!4!ed!2!BA | "D" !3!d{e}dAd !2!B!3!dAd |1 "A"!2!B!1!def !4!gef!2!e :|2 "A"!2!B!1!def !4!g2fg :|
|: "D"!5!a!3!f!2!f!3!f !1!d!3!f!2!f!2!f | !5!a!3!f!2!f!3!f "A"!4!g!1!e !3!(3e!2!e!1!e | "D"!5!affe !1!dfe!1!d |1 "A"!2!B!1!def !4!g2fg :|2 "A"!2!B!1!def !4!g2fe ||


